X: 32
T:Come have a drink with me
M:6/8
L:1/8
Z:Rachel Marsh
K:Em
A | BAG E2 D | EGD EGA | BAB GED | EA^G ABc | BAG E2 D |
EGD EGA | BAB GED | EGF G2  :||
G | GBd e2 d | dgg B2 A | GBd edB | caa a2^a  | bag age |
(3efg d (3efg e | dBG ABc | BGF G2 :||
<end>
<start>
